X:1
T:James Gibb editions
T:I do not ask, O Lord, that life may be - Barnby
%%score [ ( 1 2 ) ( 3 4 ) ]
L:1/8
Q:1/4=84
M:4/4
K:F
V:1 treble nm="Midi_74"
V:2 treble 
V:3 bass nm="Midi_74"
V:4 bass 
V:1
"^Adelaide Anne Procter\n(1825-64)""^Ad lucem (10 4. 10 4. D)""^I do not ask, O Lord, that life may be""^Joseph Barnby\n(1838-96)" A2 | %1
 A2 A2 G2 A2 | d2 c2 B2 A2 | B4 c4 | A4 c4 | G6 || B2 | B2 B2 A2 B2 | _e2 d2 B2 c2 | d4 B4 | %10
 B4 A4 | B6 ||[M:4/4] B2 | =e2 d2 c2 B2 | A2 A2 B2 c2 | d4 G4 | A4 c4 | B6 || c2 | A2 A2 B2 c2 | %20
 d2 e2 f2 G2 | A4 c4 | A4 G4 | F6 || B4 A4 |] %25
V:2
 F2 | F2 F2 E2 F2 | F2 A2 G2 ^F2 | G4 G4 | F4 F4 | E6 || G2 | G2 G2 ^F2 G2 | G2 ^F2 D2 =E2 | %9
 F4 G4 | _E4 E4 | D6 ||[M:4/4] D2 | =E2 E2 F2 G2 | G2 F2 F2 F2 | F4 G4 | G4 ^F4 | G6 || G2 | %19
 F2 F2 F2 F2 | F2 G2 F2 F2 | F4 F4 | E4 E4 | F6 || F4 F4 |] %25
V:3
 C2 | C2 C2 C2 C2 | F2 _E2 D2 D2 | D4 C4 | C4 C4 | C6 || D2 | D2 D2 D2 D2 | C2 A,2 B,2 B,2 | %9
 B,4 _E4 | C4 C4 | B,6 ||[M:4/4] B,2 | B,2 B,2 A,2 G,2 | %14
 C2"^1. I do not ask, O Lord, that life may be\n A pleasant road;\nI do not ask that Thou wouldst take from me\n Aught of its load.\nFor one thing only, Lord, dear Lord, I plead:\n Lead me aright,\nThough strength should falter and though heart should bleed,\n Through peace to light.\n\n2. I do not ask my cross to understand,\n My way to see;\nBetter in darkness just to feel Thy hand,\n And follow Thee.\nJoy is like restless day, but peace divine\n Like quiet night;\nLead me, O Lord, till perfect day shall shine,\n Through peace to light." F2 F2 _E2 | %15
 D4 D4 | _E4 D4 | D6 || C2 | C2 F2 F2 _E2 | D2 ^C2 A,2 B,2 | C4 A,4 | C4 B,4 | A,6 || D4 C4 |] %25
V:4
 F,2 | F,2 F,2 C,2 F,2 | B,,2 C,2 D,2 D,2 | G,4 E,4 | F,4 A,4 | C6 || G,2 | G,2 G,2 D,2 G,2 | %8
 C,2 D,2 G,2 G,2 | F,4 F,4 | F,4 F,4 | B,6 ||[M:4/4] G,2 | C,2 C,2 D,2 E,2 | F,2 F,2 G,2 A,2 | %15
 B,4 B,,4 | C,4 D,4 | G,6 || E,2 | F,2 F,2 G,2 A,2 | B,2 A,2 D,2 D,2 | C,4 C,4 | C,4 C,4 | F,6 || %24
 B,,4 F,4 |] %25

